X: 39723
T: Teviot Bridge
R: jig
M: 6/8
K: Amajor
e|:cBA E2A|F2A E2c|efe edc|d2c Bcd|
cBA E2A|F2A E2c|efe ecA|1 BcB A2B:|2 BcB A2c||
|:ecB Ace|~f3 fga|ecA AGA|BGE E2c|
ecB Ace|agf e3|AcB A2c|1 BcB A2c:|2 BcB A2||

